img/icons/arrow-back-outline.svg

<svg width="32" height="32" viewBox="0 0 32 32" fill="none" xmlns="http://www.w3.org/2000/svg">
<path d="M25.3331 14.6666H9.51982L14.3598 8.85331C14.5861 8.58103 14.695 8.22998 14.6625 7.87742C14.63 7.52485 14.4588 7.19963 14.1865 6.97331C13.9142 6.747 13.5632 6.63811 13.2106 6.67062C12.858 6.70313 12.5328 6.87436 12.3065 7.14665L5.63982 15.1466C5.59497 15.2103 5.55486 15.2771 5.51982 15.3466C5.51982 15.4133 5.51982 15.4533 5.42649 15.52C5.36605 15.6729 5.33441 15.8356 5.33315 16C5.33441 16.1644 5.36605 16.3271 5.42649 16.48C5.42649 16.5466 5.42649 16.5866 5.51982 16.6533C5.55486 16.7228 5.59497 16.7897 5.63982 16.8533L12.3065 24.8533C12.4318 25.0038 12.5888 25.1249 12.7663 25.2078C12.9437 25.2908 13.1373 25.3336 13.3332 25.3333C13.6447 25.3339 13.9466 25.2254 14.1865 25.0266C14.3215 24.9147 14.4331 24.7772 14.5149 24.6221C14.5967 24.467 14.6471 24.2972 14.6632 24.1226C14.6793 23.948 14.6608 23.7719 14.6087 23.6044C14.5567 23.4369 14.4721 23.2814 14.3598 23.1466L9.51982 17.3333H25.3331C25.6868 17.3333 26.0259 17.1928 26.276 16.9428C26.526 16.6927 26.6665 16.3536 26.6665 16C26.6665 15.6464 26.526 15.3072 26.276 15.0572C26.0259 14.8071 25.6868 14.6666 25.3331 14.6666Z" fill="#333333"/>
</svg>

<svg width="32" height="32" viewBox="0 0 32 32" fill="none" xmlns="http://www.w3.org/2000/svg"><path d="M25.333 14.667H9.52l4.84-5.814a1.335 1.335 0 00-2.053-1.706l-6.667 8c-.045.063-.085.13-.12.2 0 .066 0 .106-.094.173-.06.153-.092.316-.093.48.001.164.033.327.093.48 0 .067 0 .107.094.173.035.07.075.137.12.2l6.667 8a1.332 1.332 0 001.026.48 1.333 1.333 0 001.027-2.186l-4.84-5.814h15.813a1.334 1.334 0 000-2.666z" fill="#333"/></svg>
